!! 00000] TT[WS
!!!OTL: Xia liulin
!!!ARE: Asia, China, Shanxi Lishi
!! Ethnic Group: Han
!! WII, 236 (2)
!!!SCT: J0756
!!!YEM: Copyright 1995, estate of Helmut Schaffrath.
**kern
*ICvox
*Ivox
*M2/4
*k[f#]
*G:
{8b
8a
8b
16a
16g
=1
8a
16e
16d
4B
=2
8a
8a
8a
8b
=3
8dd
4.a}
=4
{8.dd
16ee
16ee
16gg
16ee
16dd
=5
16ee
16dd
16b
16a
16g
16e
8g
=6
16a
16b
16a
16g
16e
16d
8B
=7
8.d
16e
4d}
==
!!!AGN: Xiaodiao. XÅshi, Xinminge
!!!ONB: ESAC (Essen Associative Code) Database: CHINA
!!!AMT: simple duple
!!!AIN: vox
!!!EED: Helmut Schaffrath
!!!EEV: 1.0
*-
